X:757
T:Isle of Mull 
C:Joe Buchanan's Scottish Tome - Page 509.2
I:509 2
Z:Carl Allison
R:Slow Air
L:1/8
M:3/4
K:G
D>E | G2 A>G E>D | D4 E>G | A2 A2 B>B | A2 G2 d>c |
B2 A>G B>A | G2 B,2 D2 | E2 A>G E>D | D4 D>E |
B2 A>G B>A | G4 E>G | A2 A>d B>B | A2 G2 d>c |
B2 A>G B>A | G2 B,2 D2 | E2 A>G E>D | D8 |]

